outputs/icons/image/auto_sharp.svg

<svg xmlns="http://www.w3.org/2000/svg" width="1200" height="1200" fill="none"><g fill="#000" clip-path="url(#a)"><path fill-rule="evenodd" d="M200 450a99.99 99.99 0 0 1 70.703 29.297A100 100 0 0 1 300 550v200h-75v-75H125v75H50V550a100 100 0 0 1 29.297-70.703A99.99 99.99 0 0 1 150 450zm-50 75a25 25 0 0 0-17.676 7.325A25 25 0 0 0 125 550v50h100v-50a25 25 0 0 0-7.324-17.675A25 25 0 0 0 200 525z"/><path d="M425 650a25 25 0 0 0 7.324 17.675A25 25 0 0 0 450 675h50c6.63 0 12.985-2.635 17.675-7.325A25 25 0 0 0 525 650V450h75v200c0 26.52-10.545 51.95-29.295 70.705A100.01 100.01 0 0 1 500 750h-50a100 100 0 0 1-70.703-29.295A100 100 0 0 1 350 650V450h75zM875 525h-87.5v225h-75V525H625v-75h250z"/><path fill-rule="evenodd" d="M1075 450c19.73.506 38.535 8.553 52.49 22.51A77.03 77.03 0 0 1 1150 525v150c-.505 19.73-8.555 38.535-22.51 52.49S1094.73 749.495 1075 750H975c-19.73-.505-38.535-8.555-52.49-22.51S900.505 694.73 900 675V525a77.03 77.03 0 0 1 22.51-52.49c13.955-13.957 32.76-22.004 52.49-22.51zm-100 75v150h100V525z"/></g><defs><clipPath id="a"><path fill="#fff" d="M0 0h1200v1200H0z"/></clipPath></defs></svg>

<svg width="1200" height="1200" viewBox="0 0 1200 1200" fill="none" xmlns="http://www.w3.org/2000/svg"><g clip-path="url(#clip0_1105_3177)"><path fill-rule="evenodd" d="M200 450C226.522 450 251.95 460.543 270.703 479.297C289.457 498.05 300 523.48 300 550V750H225V675H125V750H50V550C50 523.48 60.543 498.05 79.297 479.297C98.05 460.543 123.478 450 150 450H200ZM150 525C143.369 525 137.013 527.635 132.324 532.325C127.636 537.015 125 543.37 125 550V600H225V550C225 543.37 222.364 537.015 217.676 532.325C212.988 527.635 206.63 525 200 525H150Z" fill="black"/><path d="M425 650C425 656.63 427.636 662.985 432.324 667.675C437.012 672.365 443.37 675 450 675H500C506.63 675 512.985 672.365 517.675 667.675C522.365 662.985 525 656.63 525 650V450H600V650C600 676.52 589.455 701.95 570.705 720.705C551.95 739.455 526.52 750 500 750H450C423.478 750 398.05 739.455 379.297 720.705C360.543 701.95 350 676.52 350 650V450H425V650Z" fill="black"/><path d="M875 525H787.5V750H712.5V525H625V450H875V525Z" fill="black"/><path fill-rule="evenodd" d="M1075 450C1094.73 450.506 1113.535 458.553 1127.49 472.51C1141.445 486.467 1149.495 505.27 1150 525V675C1149.495 694.73 1141.445 713.535 1127.49 727.49C1113.535 741.445 1094.73 749.495 1075 750H975C955.27 749.495 936.465 741.445 922.51 727.49C908.555 713.535 900.505 694.73 900 675V525C900.505 505.27 908.555 486.467 922.51 472.51C936.465 458.553 955.27 450.506 975 450H1075ZM975 525V675H1075V525H975Z" fill="black"/></g><defs><clipPath id="clip0_1105_3177"><path width="24" fill="white" d="M0 0H1200V1200H0V0z"/></clipPath></defs></svg>
